symbols/web/kitchen/materialsymbolssharp/kitchen_wght200gradN25_20px.svg

<svg xmlns="http://www.w3.org/2000/svg" height="20" width="20"><path d="M6.896 6.729V4.583h.833v2.146Zm0 6.667V9.812h.833v3.584Zm-2.604 3.979V2.625h11.416v14.75Zm.833-.854h9.75V8.688h-9.75Zm0-8.688h9.75V3.479h-9.75Z"/></svg>

<svg xmlns="http://www.w3.org/2000/svg" height="20" width="20"><path d="M6.896 6.729V4.583H7.729V6.729ZM6.896 13.396V9.812H7.729V13.396ZM4.292 17.375V2.625H15.708V17.375ZM5.125 16.521H14.875V8.688H5.125ZM5.125 7.833H14.875V3.479H5.125Z"/></svg>
